proprietary/assets/icons/gebruiksvoorwerpen/stuurwiel.svg

<svg height="64" viewBox="0 0 64 64" width="64" xmlns="http://www.w3.org/2000/svg"><path d="m0 0h64v64h-64z" fill="none"/><path d="m60 30c-.5734 0-1.8969.2426-3.0389.6292-.3173-5.8715-2.6609-11.2022-6.3428-15.3093 1.0814-.5343 2.1894-1.299 2.595-1.7046.7811-.7811.7811-2.0474 0-2.8284-.781-.7811-2.0474-.7811-2.8284 0-.4056.4056-1.1703 1.5136-1.7046 2.595-4.1071-3.682-9.4378-6.0255-15.3093-6.3428.3864-1.1422.629-2.4657.629-3.0391 0-1.1046-.8954-2-2-2s-2 .8954-2 2c0 .5734.2426 1.8968.6292 3.0389-5.8712.3174-11.202 2.6609-15.3092 6.3431-.5344-1.0814-1.2991-2.1896-1.7047-2.5952-.7811-.7811-2.0474-.7811-2.8284 0s-.7811 2.0474 0 2.8284c.4056.4056 1.5138 1.1704 2.5952 1.7047-3.6821 4.1072-6.0258 9.4379-6.3432 15.3093-1.1421-.3866-2.4655-.6292-3.0389-.6292-1.1046 0-2 .8954-2 2s.8954 2 2 2c.5734 0 1.8968-.2426 3.0389-.6292.3174 5.8714 2.6611 11.2021 6.3431 15.3093-1.0814.5343-2.1896 1.2991-2.5952 1.7047-.7811.7811-.7811 2.0474 0 2.8284s2.0474.7811 2.8284 0c.4056-.4056 1.1704-1.5139 1.7047-2.5953 4.1072 3.6822 9.438 6.0258 15.3092 6.3431-.3865 1.1422-.6291 2.4656-.6291 3.039 0 1.1046.8954 2 2 2s2-.8954 2-2c0-.5734-.2426-1.8969-.6291-3.0389 5.8715-.3174 11.2021-2.6608 15.3093-6.3428.5343 1.0814 1.299 2.1894 1.7046 2.595.7811.7811 2.0474.7811 2.8284 0 .7811-.7811.7811-2.0474 0-2.8284-.4056-.4056-1.5136-1.1703-2.595-1.7046 3.6819-4.1071 6.0255-9.4378 6.3428-15.3093 1.1421.3864 2.4656.629 3.039.629 1.1046 0 2-.8954 2-2s-.8954-2-2-2zm-9.9835 4c-.3851 3.5037-1.7717 6.7059-3.8624 9.3257l-7.28-7.28c-.9693.8135-1.7154 1.2267-1.9746 1.3556-.2231.1108-.3685.0764-.4335-.0161 1.5468-1.2851 2.534-3.2217 2.534-5.3852 0-1.2039-.3058-2.3377-.8434-3.3282l7.9975-7.9975c2.0907 2.6198 3.4773 5.822 3.8624 9.3257h-8.759c-.0486 1.7684-.4164 3.074-.8509 4zm-36.1684 0h11.4467c.1387.4643.3214.9097.5486 1.3282l-8.0749 8.0749c-2.1245-2.6336-3.5316-5.8657-3.9204-9.4031zm3.9204-13.4031 8.0749 8.0749c-.2272.4186-.4099.864-.5486 1.3282h-11.4467c.3888-3.5374 1.7959-6.7695 3.9204-9.4031zm17.5597 5.2465c-.4186-.2272-.864-.4099-1.3282-.5486v-11.3687c3.5107.3994 6.7189 1.7993 9.3354 3.91zm.8218 6.1566c0 2.292-1.858 4.15-4.15 4.15-2.2919 0-4.15-1.858-4.15-4.15s1.858-4.15 4.15-4.15c2.2921 0 4.15 1.858 4.15 4.15zm-6.15-6.7052c-.4642.1387-.9096.3214-1.3282.5486l-8.0652-8.0652c2.6369-2.1043 5.8629-3.4982 9.3934-3.8727zm-1.3282 12.8618c.4186.2272.864.4099 1.3282.5486v11.3893c-3.5305-.3745-6.7565-1.7684-9.3934-3.8727zm5.3282.5486c.4643-.1387.9097-.3214 1.3282-.5486l8.0072 8.0072c-2.6166 2.1107-5.8248 3.5107-9.3354 3.91z"/></svg>

<?xml version="1.0" encoding="utf-8"?>
<!-- Generator: Adobe Illustrator 17.1.0, SVG Export Plug-In . SVG Version: 6.00 Build 0)  -->
<svg version="1.2" baseProfile="tiny" xmlns="http://www.w3.org/2000/svg" xmlns:xlink="http://www.w3.org/1999/xlink" x="0px"
	 y="0px" width="64px" height="64px" viewBox="0 0 64 64" xml:space="preserve">
<g id="Box">
	<rect fill="none" width="64" height="64"/>
</g>
<g id="Icon">
	<path d="M60,30c-0.5734,0-1.8969,0.2426-3.0389,0.6292c-0.3173-5.8715-2.6609-11.2022-6.3428-15.3093
		c1.0814-0.5343,2.1894-1.299,2.595-1.7046c0.7811-0.7811,0.7811-2.0474,0-2.8284c-0.781-0.7811-2.0474-0.7811-2.8284,0
		c-0.4056,0.4056-1.1703,1.5136-1.7046,2.595c-4.1071-3.682-9.4378-6.0255-15.3093-6.3428C33.7574,5.8969,34,4.5734,34,4
		c0-1.1046-0.8954-2-2-2c-1.1046,0-2,0.8954-2,2c0,0.5734,0.2426,1.8968,0.6292,3.0389c-5.8712,0.3174-11.202,2.6609-15.3092,6.3431
		c-0.5344-1.0814-1.2991-2.1896-1.7047-2.5952c-0.7811-0.7811-2.0474-0.7811-2.8284,0s-0.7811,2.0474,0,2.8284
		c0.4056,0.4056,1.5138,1.1704,2.5952,1.7047C9.7,19.4271,7.3563,24.7578,7.0389,30.6292C5.8968,30.2426,4.5734,30,4,30
		c-1.1046,0-2,0.8954-2,2s0.8954,2,2,2c0.5734,0,1.8968-0.2426,3.0389-0.6292C7.3563,39.2422,9.7,44.5729,13.382,48.6801
		c-1.0814,0.5343-2.1896,1.2991-2.5952,1.7047c-0.7811,0.7811-0.7811,2.0474,0,2.8284s2.0474,0.7811,2.8284,0
		c0.4056-0.4056,1.1704-1.5139,1.7047-2.5953c4.1072,3.6822,9.438,6.0258,15.3092,6.3431C30.2426,58.1032,30,59.4266,30,60
		c0,1.1046,0.8954,2,2,2c1.1046,0,2-0.8954,2-2c0-0.5734-0.2426-1.8969-0.6291-3.0389c5.8715-0.3174,11.2021-2.6608,15.3093-6.3428
		c0.5343,1.0814,1.299,2.1894,1.7046,2.595c0.7811,0.7811,2.0474,0.7811,2.8284,0c0.7811-0.7811,0.7811-2.0474,0-2.8284
		c-0.4056-0.4056-1.5136-1.1703-2.595-1.7046c3.6819-4.1071,6.0255-9.4378,6.3428-15.3093C58.1031,33.7574,59.4266,34,60,34
		c1.1046,0,2-0.8954,2-2S61.1046,30,60,30z M50.0165,34c-0.3851,3.5037-1.7717,6.7059-3.8624,9.3257l-7.28-7.28
		c-0.9693,0.8135-1.7154,1.2267-1.9746,1.3556c-0.2231,0.1108-0.3685,0.0764-0.4335-0.0161C38.0128,36.1001,39,34.1635,39,32
		c0-1.2039-0.3058-2.3377-0.8434-3.3282l7.9975-7.9975c2.0907,2.6198,3.4773,5.822,3.8624,9.3257h-8.759
		c-0.0486,1.7684-0.4164,3.074-0.8509,4H50.0165z M13.8481,34h11.4467c0.1387,0.4643,0.3214,0.9097,0.5486,1.3282l-8.0749,8.0749
		C15.644,40.7695,14.2369,37.5374,13.8481,34z M17.7685,20.5969l8.0749,8.0749c-0.2272,0.4186-0.4099,0.864-0.5486,1.3282H13.8481
		C14.2369,26.4626,15.644,23.2305,17.7685,20.5969z M35.3282,25.8434c-0.4186-0.2272-0.864-0.4099-1.3282-0.5486V13.9261
		c3.5107,0.3994,6.7189,1.7993,9.3354,3.91L35.3282,25.8434z M36.15,32c0,2.292-1.858,4.15-4.15,4.15
		c-2.2919,0-4.15-1.858-4.15-4.15s1.858-4.15,4.15-4.15C34.2921,27.85,36.15,29.708,36.15,32z M30,25.2948
		c-0.4642,0.1387-0.9096,0.3214-1.3282,0.5486l-8.0652-8.0652C23.2435,15.6739,26.4695,14.28,30,13.9055V25.2948z M28.6718,38.1566
		c0.4186,0.2272,0.864,0.4099,1.3282,0.5486v11.3893c-3.5305-0.3745-6.7565-1.7684-9.3934-3.8727L28.6718,38.1566z M34,38.7052
		c0.4643-0.1387,0.9097-0.3214,1.3282-0.5486l8.0072,8.0072c-2.6166,2.1107-5.8248,3.5107-9.3354,3.91V38.7052z"/>
</g>
</svg>
